X:1
T:Mighty Rock, Whose Towering Form
T:Tullius Clinton O’Kane
T:Mighty Rock, Whose Towering Form
T:Public Domain
T:Public Domain
C:Tullius Clinton O&#8217;Kane
Z:Public Domain
%%score ( 1 2 ) ( 3 4 )
L:1/8
M:3/4
K:A
V:1 treble 
V:2 treble 
V:3 bass 
V:4 bass 
V:1
 [A,C]>[B,D] | [CE]3 [DF] [CE]>[EA] | [Ec]4 [Ec]>[^EB] | [FA]3 [FA] [EG]>[DF] | %4
w: 1.~Might- y|Rock, whose tower- ing|form Looks a-|bove the frown- ing|
w: 2.~Of the|springs that from Thee|burst, Let me|drink and quench my|
w: 3.~When I|near the stream of|death, When I|feel its chill- y|
 ([DF]2 [CE]2) [A,C]>[B,D] | [CE]3 [DF] [CE]>[EA] | [Ec]4 [FB]>[Fc] | [Fd]3 [EG] [^DF]>[=DG] | %8
w: storm, * Rock a-|mid the des- ert|waste, To Thy|sha- dow now I|
w: thirst; * Wea- ry,|faint- ing, toil- op-|pressed, In Thy|sha- dow let me|
w: breath, * Rock where|all my hopes a-|bide, In Thy|sha- dow let me|
 [CA]4 x2 ||"^Refrain" [B,E]>[EG] x2 | B3 d [Ec]>[DB] | [CA]4 [EA]>[EB] | [EA]3 [EG] [^DF]>[DG] | %13
w: haste.|||||
w: rest.|||||
w: hide.|||||
 (E2 D2) [A,C]>[B,D] | [CE]3 [DF] [CE]>[EA] | [Ec]4 [FB]>[Fc] | [Fd]3 [EG] [EF]>[EG] | [EA]6 |] %18
w: |||||
w: |||||
w: |||||
 x6 |] %19
w: |
w: |
w: |
V:2
 x2 | x6 | x6 | x6 | x6 | x6 | x6 | x6 | x6 || x4 | G4 x2 | x6 | x6 | B,4 x2 | x6 | x6 | x6 | x6 |] %18
 x6 |] %19
V:3
 [A,,E,]>[A,,E,] | [A,,A,]3 [A,,A,] x2 | [A,,A,]>[A,,C] x4 | [A,,A,]4 [A,,A,]>[C,G,] | %4
w: ~ ~|~ ~|~ ~|~ ~ ~|
 [D,F,]3 [D,A,] [D,A,]>[D,A,] | [A,,A,]4 [A,,E,]>[A,,E,] | [A,,A,]3 [A,,A,] [A,,A,]>[A,,C] | %7
w: ~ ~ ~ ~|~ ~ ~|~ ~ ~ ~|
 [A,,A,]4 [D,A,]>[C,^A,] | [B,,B,]3 [E,B,] [E,B,]>[E,B,] || [A,,A,]4 | [E,G,]>[E,B,] x4 | %11
w: ~ ~ ~|~ ~ ~ ~|~|Un- to|
 (D3 B,) [E,A,]>[E,G,] | [A,,A,]4 [A,,C]>[A,,D] | [A,,C]3 [B,,B,] [B,,B,]>[B,,B,] | %14
w: Thee, * un- to|Pre- cious Sav-|ior, now I flee;|
 [E,G,]4 [A,,E,]>[A,,E,] | [A,,A,]3 [A,,A,] [A,,A,]>[A,,C] | [A,,A,]4 [D,A,]>[C,^A,] | %17
w: “Rock of Ag-|es, cleft for me,|Let me hide|
 [B,,B,]3 [E,B,] [E,D]>[E,B,] |] [A,,C]6 |] %19
w: my- self in Thee.”||
V:4
 x2 | x6 | x6 | x6 | x6 | x6 | x6 | x6 | x6 || x4 | x6 | E,4 x2 | x6 | x6 | x6 | x6 | x6 | x6 |] %18
w: |||||||||||Thee,|||||||
 x6 |] %19
w: |

